src/assets/icons/star_icon.svg

<svg fill="none" height="24" viewBox="0 0 24 24" width="24" xmlns="http://www.w3.org/2000/svg"><path d="m11.1195 2.47608c.4067-.63478 1.3541-.63476 1.7607 0l.0791.14649 2.3516 5.27734 5.748.60742c.9036.09541 1.2674 1.2158.5928 1.82417l-4.293 3.8692 1.1993 5.6543c.1882.8888-.7647 1.5808-1.5518 1.1269l-5.0068-2.8877-5.00589 2.8877c-.78701.4537-1.73993-.2382-1.55175-1.1269l1.19824-5.6553-4.29199-3.8682c-.67448-.60835-.31064-1.72868.59277-1.82417l5.74707-.60742 2.35355-5.27734zm-1.167 6.27246c-.15255.34226-.47601.57776-.84863.61719l-5.00098.52734 3.73535 3.36723c.27835.2508.40188.6314.32422.998l-1.04395 4.9199 4.35649-2.5127c.2841-.1638.6263-.1844.9248-.0615l.125.0615 4.3554 2.5127-1.0429-4.9199c-.0777-.3666.0458-.7472.3242-.998l3.7353-3.36723-5.0009-.52734c-.3726-.03947-.6961-.27497-.8487-.61719l-2.0478-4.59375z" fill="#000"/></svg>

<svg width="24" height="24" viewBox="0 0 24 24" fill="none" xmlns="http://www.w3.org/2000/svg">
<path d="M11.1195 2.47608C11.5262 1.8413 12.4736 1.84132 12.8802 2.47608L12.9593 2.62257L15.3109 7.89991L21.0589 8.50733C21.9625 8.60274 22.3263 9.72313 21.6517 10.3315L17.3587 14.2007L18.558 19.855C18.7462 20.7438 17.7933 21.4358 17.0062 20.9819L11.9994 18.0942L6.99351 20.9819C6.2065 21.4356 5.25358 20.7437 5.44176 19.855L6.64 14.1997L2.34801 10.3315C1.67353 9.72315 2.03737 8.60282 2.94078 8.50733L8.68785 7.89991L11.0414 2.62257L11.1195 2.47608ZM9.9525 8.74854C9.79995 9.0908 9.47649 9.3263 9.10387 9.36573L4.10289 9.89307L7.83824 13.2603C8.11659 13.5111 8.24012 13.8917 8.16246 14.2583L7.11851 19.1782L11.475 16.6655C11.7591 16.5017 12.1013 16.4811 12.3998 16.604L12.5248 16.6655L16.8802 19.1782L15.8373 14.2583C15.7596 13.8917 15.8831 13.5111 16.1615 13.2603L19.8968 9.89307L14.8959 9.36573C14.5233 9.32626 14.1998 9.09076 14.0472 8.74854L11.9994 4.15479L9.9525 8.74854Z" fill="black"/>
</svg>
